lib/brands/icons/procreate.svg

<svg xmlns="http://www.w3.org/2000/svg" fill="none" aria-hidden="true" viewBox="0 0 48 48"><g id="procreate-Icon"><g id="procreate"><path id="bg" fill="#242424" d="M3 18.2C3 12.8795 3 10.2193 4.03544 8.18709C4.94624 6.39955 6.39955 4.94624 8.18709 4.03544C10.2193 3 12.8795 3 18.2 3H29.8C35.1205 3 37.7807 3 39.8129 4.03544C41.6004 4.94624 43.0538 6.39955 43.9646 8.18709C45 10.2193 45 12.8795 45 18.2V29.8C45 35.1205 45 37.7807 43.9646 39.8129C43.0538 41.6004 41.6004 43.0538 39.8129 43.9646C37.7807 45 35.1205 45 29.8 45H18.2C12.8795 45 10.2193 45 8.18709 43.9646C6.39955 43.0538 4.94624 41.6004 4.03544 39.8129C3 37.7807 3 35.1205 3 29.8V18.2Z"/><path id="bg_2" fill="url(#paint0_linear_94_20649)" d="M14.7998 24.6C8.94985 28.9055 7.7998 35.2 7.7998 40.45C8.06647 38.8833 9.2898 35.21 12.0498 33.05C16.1498 29.8412 23.6498 30.8983 31.8498 25.45C40.0499 20.0016 40.8498 12.9 39.7998 7.44995C39.0703 12.7088 36.5806 15.0007 33.1498 17.05C25.6999 21.5 21.0499 20 14.7998 24.6Z"/><path id="bg_top" fill="url(#paint1_linear_94_20649)" d="M14.7998 24.6C8.94985 28.9055 7.7998 35.2 7.7998 40.45C8.06647 38.8833 9.2898 35.21 12.0498 33.05C16.1498 29.8412 23.6498 30.8983 31.8498 25.45C40.0499 20.0016 40.8498 12.9 39.7998 7.44995C39.0703 12.7088 36.5806 15.0007 33.1498 17.05C25.6999 21.5 21.0499 20 14.7998 24.6Z"/><path id="one" fill="url(#paint2_linear_94_20649)" d="M7.87012 38.298C8.19112 33.5543 9.73143 28.3306 14.8002 24.6C18.0584 22.202 20.8818 21.4617 23.8938 20.672C25.6515 20.2112 27.4735 19.7335 29.4835 18.8997C28.7502 19.6001 25.2655 21.235 22.637 22.3275C20.0154 23.4171 17.2515 24.5658 14.9502 26.1C10.3329 29.1782 8.45546 34.5338 7.87012 38.298Z"/><path id="one_top" fill="url(#paint3_linear_94_20649)" d="M7.87012 38.298C8.19112 33.5543 9.73143 28.3306 14.8002 24.6C18.0584 22.202 20.8818 21.4617 23.8938 20.672C25.6515 20.2112 27.4735 19.7335 29.4835 18.8997C28.7502 19.6001 25.2655 21.235 22.637 22.3275C20.0154 23.4171 17.2515 24.5658 14.9502 26.1C10.3329 29.1782 8.45546 34.5338 7.87012 38.298Z"/><path id="three" fill="url(#paint4_linear_94_20649)" d="M36.3264 21.5563C35.7514 22.1195 35.1104 22.6237 34.3999 23.05C31.1999 24.97 27.7985 25.5892 24.4889 26.1917C21.8516 26.6718 19.2725 27.1413 16.8999 28.25C11.5502 30.7498 8.2503 35.9493 7.79996 40.4491C7.79992 40.4493 7.79989 40.4495 7.79986 40.4497C7.79984 40.4489 7.79982 40.4481 7.7998 40.4473C7.79983 40.1038 7.80478 39.7558 7.81565 39.4043C7.84291 38.8465 7.90058 38.2285 7.99599 37.5694C8.70225 33.8688 10.6231 28.9845 14.9498 26.1C16.7815 24.8789 18.9061 23.902 21.0188 23.0048C22.8768 22.3948 24.5513 22.0151 26.1467 21.6534C28.6581 21.084 30.9735 20.5591 33.4999 19.25C38.801 16.5031 40.1899 10.8582 39.8165 7.53772C40.6091 11.745 40.2887 16.9199 36.3264 21.5563Z"/><path id="four" fill="url(#paint5_linear_94_20649)" d="M36.3267 21.5564C35.7518 22.1195 35.1108 22.6237 34.4003 23.05C31.2003 24.97 27.7989 25.5892 24.4893 26.1917C21.852 26.6718 19.2729 27.1413 16.9003 28.25C13.8237 29.6876 11.425 32.0182 9.85645 34.595C11.2405 32.6503 13.3489 30.4777 15.9503 29.65C18.4886 28.8423 20.9098 28.7589 23.4252 28.6721C24.1462 28.6473 24.8749 28.6222 25.6163 28.5797C27.6144 27.8523 29.7084 26.873 31.8502 25.45C33.6963 24.2233 35.1674 22.9129 36.3267 21.5564Z"/><path id="four_top" fill="url(#paint6_linear_94_20649)" d="M36.3267 21.5564C35.7518 22.1195 35.1108 22.6237 34.4003 23.05C31.2003 24.97 27.7989 25.5892 24.4893 26.1917C21.852 26.6718 19.2729 27.1413 16.9003 28.25C13.8237 29.6876 11.425 32.0182 9.85645 34.595C11.2405 32.6503 13.3489 30.4777 15.9503 29.65C18.4886 28.8423 20.9098 28.7589 23.4252 28.6721C24.1462 28.6473 24.8749 28.6222 25.6163 28.5797C27.6144 27.8523 29.7084 26.873 31.8502 25.45C33.6963 24.2233 35.1674 22.9129 36.3267 21.5564Z"/><path id="two" fill="url(#paint7_linear_94_20649)" d="M39.8172 7.53766C39.8117 7.50838 39.8061 7.47914 39.8005 7.44995C39.0709 12.7088 36.5813 15.0007 33.1505 17.05C31.8508 17.8263 30.6364 18.4215 29.4838 18.8996C28.7503 19.6 25.2657 21.235 22.6374 22.3274L22.6369 22.3275C22.102 22.5499 21.5612 22.7747 21.0195 23.0047C22.8775 22.3947 24.552 22.0151 26.1474 21.6534C28.6588 21.084 30.9742 20.5591 33.5005 19.2499C38.8016 16.503 40.1905 10.8581 39.8172 7.53766Z"/><path id="two_top" fill="url(#paint8_linear_94_20649)" d="M39.8172 7.53766C39.8117 7.50838 39.8061 7.47914 39.8005 7.44995C39.0709 12.7088 36.5813 15.0007 33.1505 17.05C31.8508 17.8263 30.6364 18.4215 29.4838 18.8996C28.7503 19.6 25.2657 21.235 22.6374 22.3274L22.6369 22.3275C22.102 22.5499 21.5612 22.7747 21.0195 23.0047C22.8775 22.3947 24.552 22.0151 26.1474 21.6534C28.6588 21.084 30.9742 20.5591 33.5005 19.2499C38.8016 16.503 40.1905 10.8581 39.8172 7.53766Z"/></g></g><defs><linearGradient id="paint0_linear_94_20649" x1="26.0998" x2="8.7998" y1="27.3" y2="39.7" gradientUnits="userSpaceOnUse"><stop stop-color="#FE5004"/><stop offset="0.602538" stop-color="#FFB915"/><stop offset="1" stop-color="#FFFC41"/></linearGradient><linearGradient id="paint1_linear_94_20649" x1="19.2498" x2="19.3498" y1="28.35" y2="30.15" gradientUnits="userSpaceOnUse"><stop stop-color="#FD3E00"/><stop offset="1" stop-color="#FD4400" stop-opacity="0"/></linearGradient><linearGradient id="paint2_linear_94_20649" x1="29.5001" x2="5.10014" y1="18.0001" y2="39.7001" gradientUnits="userSpaceOnUse"><stop stop-color="#005FC6"/><stop offset="0.279756" stop-color="#23A4DF"/><stop offset="0.465158" stop-color="#3AC2B7"/><stop offset="0.640642" stop-color="#60EC7A"/><stop offset="0.818668" stop-color="#CFFDBD"/><stop offset="1" stop-color="#D0FCB6"/></linearGradient><linearGradient id="paint3_linear_94_20649" x1="24.5501" x2="22.4501" y1="22.1501" y2="20.2501" gradientUnits="userSpaceOnUse"><stop stop-color="#0061CB"/><stop offset="1" stop-color="#067EEA" stop-opacity="0"/></linearGradient><linearGradient id="paint4_linear_94_20649" x1="39.8998" x2="7.79981" y1="7.50001" y2="40.4" gradientUnits="userSpaceOnUse"><stop stop-color="#8E55F1"/><stop offset="0.140795" stop-color="#8B48DF"/><stop offset="0.274905" stop-color="#E04DD9"/><stop offset="0.492309" stop-color="#F496C8"/><stop offset="0.633104" stop-color="#FAD2BA"/><stop offset="0.856964" stop-color="#FEF7E5"/><stop offset="1" stop-color="#FFF5BF"/></linearGradient><linearGradient id="paint5_linear_94_20649" x1="36.7502" x2="10.5502" y1="21.25" y2="33.1" gradientUnits="userSpaceOnUse"><stop stop-color="#F41A73"/><stop offset="0.399909" stop-color="#FC50A3"/><stop offset="0.584511" stop-color="#FE9485"/><stop offset="0.703104" stop-color="#FFAF88"/><stop offset="1" stop-color="#FFC385"/></linearGradient><linearGradient id="paint6_linear_94_20649" x1="27.3002" x2="27.3502" y1="24.9" y2="27.3" gradientUnits="userSpaceOnUse"><stop stop-color="#9B0008"/><stop offset="1" stop-color="#EA115A" stop-opacity="0"/></linearGradient><linearGradient id="paint7_linear_94_20649" x1="39.9005" x2="16.2505" y1="10.2" y2="25.65" gradientUnits="userSpaceOnUse"><stop stop-color="#231283"/><stop offset="0.362865" stop-color="#7053C6"/><stop offset="0.466353" stop-color="#7272DB"/><stop offset="0.634311" stop-color="#399EE9"/><stop offset="1" stop-color="#00CFFF"/></linearGradient><linearGradient id="paint8_linear_94_20649" x1="34.0005" x2="35.0505" y1="18" y2="19.35" gradientUnits="userSpaceOnUse"><stop stop-color="#3F259D" stop-opacity="0"/><stop offset="1" stop-color="#412DAA"/></linearGradient></defs></svg>

<svg xmlns="http://www.w3.org/2000/svg" fill="none" aria-hidden="true" viewBox="0 0 48 48"><path fill="#242424" d="M3 18.2c0-5.32 0-7.98 1.035-10.013a9.5 9.5 0 0 1 4.152-4.152C10.22 3 12.88 3 18.2 3h11.6c5.32 0 7.98 0 10.013 1.035a9.5 9.5 0 0 1 4.152 4.152C45 10.22 45 12.88 45 18.2v11.6c0 5.32 0 7.98-1.035 10.013a9.5 9.5 0 0 1-4.152 4.152C37.78 45 35.12 45 29.8 45H18.2c-5.32 0-7.98 0-10.013-1.035a9.5 9.5 0 0 1-4.152-4.152C3 37.78 3 35.12 3 29.8V18.2Z"/><path fill="url(#a)" d="M14.8 24.6c-5.85 4.305-7 10.6-7 15.85.266-1.567 1.49-5.24 4.25-7.4 4.1-3.209 11.6-2.152 19.8-7.6 8.2-5.448 9-12.55 7.95-18-.73 5.259-3.22 7.55-6.65 9.6C25.7 21.5 21.05 20 14.8 24.6Z"/><path fill="url(#b)" d="M14.8 24.6c-5.85 4.305-7 10.6-7 15.85.266-1.567 1.49-5.24 4.25-7.4 4.1-3.209 11.6-2.152 19.8-7.6 8.2-5.448 9-12.55 7.95-18-.73 5.259-3.22 7.55-6.65 9.6C25.7 21.5 21.05 20 14.8 24.6Z"/><path fill="url(#c)" d="M7.87 38.298c.321-4.744 1.861-9.967 6.93-13.698 3.258-2.398 6.082-3.138 9.094-3.928 1.758-.46 3.58-.939 5.59-1.772-.734.7-4.219 2.335-6.847 3.428-2.622 1.09-5.386 2.238-7.687 3.772-4.617 3.078-6.495 8.434-7.08 12.198Z"/><path fill="url(#d)" d="M7.87 38.298c.321-4.744 1.861-9.967 6.93-13.698 3.258-2.398 6.082-3.138 9.094-3.928 1.758-.46 3.58-.939 5.59-1.772-.734.7-4.219 2.335-6.847 3.428-2.622 1.09-5.386 2.238-7.687 3.772-4.617 3.078-6.495 8.434-7.08 12.198Z"/><path fill="url(#e)" d="M36.326 21.556A10.395 10.395 0 0 1 34.4 23.05c-3.2 1.92-6.601 2.54-9.911 3.142-2.637.48-5.216.95-7.59 2.058-5.349 2.5-8.649 7.7-9.099 12.2v-.003c0-.343.005-.691.016-1.043.027-.558.085-1.176.18-1.835.706-3.7 2.627-8.585 6.954-11.469 1.832-1.221 3.956-2.198 6.069-3.095 1.858-.61 3.532-.99 5.128-1.352 2.511-.569 4.827-1.094 7.353-2.403 5.301-2.747 6.69-8.392 6.316-11.712.793 4.207.473 9.382-3.49 14.018Z"/><path fill="url(#f)" d="M36.327 21.556A10.394 10.394 0 0 1 34.4 23.05c-3.2 1.92-6.601 2.54-9.91 3.142-2.638.48-5.217.95-7.59 2.058-3.076 1.438-5.475 3.768-7.044 6.345 1.385-1.945 3.493-4.117 6.094-4.945 2.539-.808 4.96-.891 7.475-.978.721-.025 1.45-.05 2.191-.092a29.148 29.148 0 0 0 6.234-3.13c1.846-1.227 3.317-2.537 4.477-3.894Z"/><path fill="url(#g)" d="M36.327 21.556A10.394 10.394 0 0 1 34.4 23.05c-3.2 1.92-6.601 2.54-9.91 3.142-2.638.48-5.217.95-7.59 2.058-3.076 1.438-5.475 3.768-7.044 6.345 1.385-1.945 3.493-4.117 6.094-4.945 2.539-.808 4.96-.891 7.475-.978.721-.025 1.45-.05 2.191-.092a29.148 29.148 0 0 0 6.234-3.13c1.846-1.227 3.317-2.537 4.477-3.894Z"/><path fill="url(#h)" d="M39.817 7.538a1.244 1.244 0 0 0-.017-.088c-.73 5.259-3.219 7.55-6.65 9.6a28.082 28.082 0 0 1-3.666 1.85c-.734.7-4.218 2.335-6.847 3.427-.535.223-1.076.448-1.617.678 1.858-.61 3.532-.99 5.127-1.352 2.512-.569 4.827-1.094 7.354-2.403 5.3-2.747 6.69-8.392 6.316-11.712Z"/><path fill="url(#i)" d="M39.817 7.538a1.244 1.244 0 0 0-.017-.088c-.73 5.259-3.219 7.55-6.65 9.6a28.082 28.082 0 0 1-3.666 1.85c-.734.7-4.218 2.335-6.847 3.427-.535.223-1.076.448-1.617.678 1.858-.61 3.532-.99 5.127-1.352 2.512-.569 4.827-1.094 7.354-2.403 5.3-2.747 6.69-8.392 6.316-11.712Z"/><defs><linearGradient id="a" x1="26.1" x2="8.8" y1="27.3" y2="39.7" gradientUnits="userSpaceOnUse"><stop stop-color="#FE5004"/><stop offset=".603" stop-color="#FFB915"/><stop offset="1" stop-color="#FFFC41"/></linearGradient><linearGradient id="b" x1="19.25" x2="19.35" y1="28.35" y2="30.15" gradientUnits="userSpaceOnUse"><stop stop-color="#FD3E00"/><stop offset="1" stop-color="#FD4400" stop-opacity="0"/></linearGradient><linearGradient id="c" x1="29.5" x2="5.1" y1="18" y2="39.7" gradientUnits="userSpaceOnUse"><stop stop-color="#005FC6"/><stop offset=".28" stop-color="#23A4DF"/><stop offset=".465" stop-color="#3AC2B7"/><stop offset=".641" stop-color="#60EC7A"/><stop offset=".819" stop-color="#CFFDBD"/><stop offset="1" stop-color="#D0FCB6"/></linearGradient><linearGradient id="d" x1="24.55" x2="22.45" y1="22.15" y2="20.25" gradientUnits="userSpaceOnUse"><stop stop-color="#0061CB"/><stop offset="1" stop-color="#067EEA" stop-opacity="0"/></linearGradient><linearGradient id="e" x1="39.9" x2="7.8" y1="7.5" y2="40.4" gradientUnits="userSpaceOnUse"><stop stop-color="#8E55F1"/><stop offset=".141" stop-color="#8B48DF"/><stop offset=".275" stop-color="#E04DD9"/><stop offset=".492" stop-color="#F496C8"/><stop offset=".633" stop-color="#FAD2BA"/><stop offset=".857" stop-color="#FEF7E5"/><stop offset="1" stop-color="#FFF5BF"/></linearGradient><linearGradient id="f" x1="36.75" x2="10.55" y1="21.25" y2="33.1" gradientUnits="userSpaceOnUse"><stop stop-color="#F41A73"/><stop offset=".4" stop-color="#FC50A3"/><stop offset=".585" stop-color="#FE9485"/><stop offset=".703" stop-color="#FFAF88"/><stop offset="1" stop-color="#FFC385"/></linearGradient><linearGradient id="g" x1="27.3" x2="27.35" y1="24.9" y2="27.3" gradientUnits="userSpaceOnUse"><stop stop-color="#9B0008"/><stop offset="1" stop-color="#EA115A" stop-opacity="0"/></linearGradient><linearGradient id="h" x1="39.901" x2="16.25" y1="10.2" y2="25.65" gradientUnits="userSpaceOnUse"><stop stop-color="#231283"/><stop offset=".363" stop-color="#7053C6"/><stop offset=".466" stop-color="#7272DB"/><stop offset=".634" stop-color="#399EE9"/><stop offset="1" stop-color="#00CFFF"/></linearGradient><linearGradient id="i" x1="34.001" x2="35.05" y1="18" y2="19.35" gradientUnits="userSpaceOnUse"><stop stop-color="#3F259D" stop-opacity="0"/><stop offset="1" stop-color="#412DAA"/></linearGradient></defs></svg>
